svgs/noice.svg

<svg xmlns="http://www.w3.org/2000/svg" viewBox="0 0 192 192"><path d="M39.932 52.349a3.17 3.17 0 0 0-2.219.901 3.046 3.046 0 0 0-.92 2.176c0 .815.331 1.599.92 2.175a3.17 3.17 0 0 0 2.219.902c.832 0 1.63-.325 2.219-.902.588-.576.919-1.36.919-2.175a3.05 3.05 0 0 0-.919-2.176 3.171 3.171 0 0 0-2.219-.901Zm9.498-18.626a3.17 3.17 0 0 0-2.219.901 3.045 3.045 0 0 0-.919 2.176c0 .816.33 1.599.919 2.176a3.17 3.17 0 0 0 2.219.901c.832 0 1.63-.324 2.219-.901a3.05 3.05 0 0 0 .919-2.176 3.05 3.05 0 0 0-.919-2.176 3.171 3.171 0 0 0-2.219-.901Zm18.619 0c-.831 0-1.63.324-2.219.901a3.05 3.05 0 0 0-.919 2.176c0 .816.331 1.599.919 2.176a3.173 3.173 0 0 0 2.219.901 3.17 3.17 0 0 0 2.219-.901c.589-.577.92-1.36.92-2.176 0-.816-.331-1.599-.92-2.176a3.17 3.17 0 0 0-2.219-.901Zm18.62 0c-.832 0-1.63.324-2.219.901a3.05 3.05 0 0 0-.919 2.176c0 .816.331 1.599.919 2.176a3.171 3.171 0 0 0 2.219.901 3.17 3.17 0 0 0 2.219-.901c.589-.577.919-1.36.919-2.176 0-.816-.33-1.599-.919-2.176a3.17 3.17 0 0 0-2.219-.901ZM77.297 16a3.18 3.18 0 0 0-1.845.588c-.536.382-.935.92-1.14 1.538a3.018 3.018 0 0 0 0 1.902 3.082 3.082 0 0 0 1.14 1.538 3.18 3.18 0 0 0 1.845.588c.832 0 1.63-.325 2.219-.901a3.05 3.05 0 0 0 .919-2.176 3.05 3.05 0 0 0-.919-2.176A3.171 3.171 0 0 0 77.297 16ZM96 16c-.663 0-1.308.206-1.845.588-.536.382-.935.92-1.14 1.538a3.032 3.032 0 0 0 0 1.902 3.082 3.082 0 0 0 1.14 1.538 3.183 3.183 0 0 0 4.064-.313 3.05 3.05 0 0 0 .919-2.176 3.05 3.05 0 0 0-.919-2.176A3.17 3.17 0 0 0 96 16Zm18.703 0a3.18 3.18 0 0 0-1.844.588c-.536.382-.935.92-1.14 1.538a3.018 3.018 0 0 0 0 1.902 3.082 3.082 0 0 0 1.14 1.538 3.18 3.18 0 0 0 1.844.588c.832 0 1.631-.325 2.219-.901.589-.577.92-1.36.92-2.176 0-.816-.331-1.599-.92-2.176a3.17 3.17 0 0 0-2.219-.901Zm-9.372 17.723a3.17 3.17 0 0 0-2.219.901 3.045 3.045 0 0 0-.919 2.176c0 .816.33 1.599.919 2.176a3.17 3.17 0 0 0 2.219.901 3.17 3.17 0 0 0 2.219-.901 3.05 3.05 0 0 0 .919-2.176 3.05 3.05 0 0 0-.919-2.176 3.17 3.17 0 0 0-2.219-.901Zm18.62 0a3.17 3.17 0 0 0-2.219.901 3.046 3.046 0 0 0-.92 2.176c0 .816.331 1.599.92 2.176a3.17 3.17 0 0 0 2.219.901c.832 0 1.63-.324 2.219-.901a3.05 3.05 0 0 0 .919-2.176 3.05 3.05 0 0 0-.919-2.176 3.171 3.171 0 0 0-2.219-.901Zm18.619 0c-.832 0-1.63.324-2.219.901a3.05 3.05 0 0 0-.919 2.176c0 .816.331 1.599.919 2.176a3.171 3.171 0 0 0 2.219.901 3.17 3.17 0 0 0 2.219-.901c.589-.577.919-1.36.919-2.176 0-.816-.33-1.599-.919-2.176a3.17 3.17 0 0 0-2.219-.901ZM58.635 52.349a3.17 3.17 0 0 0-2.219.901 3.05 3.05 0 0 0-.919 2.176c0 .815.331 1.599.919 2.175a3.17 3.17 0 0 0 2.219.902 3.17 3.17 0 0 0 2.219-.902c.588-.576.919-1.36.919-2.175a3.05 3.05 0 0 0-.919-2.176 3.17 3.17 0 0 0-2.219-.901Zm18.662 0a3.17 3.17 0 0 0-2.219.901 3.046 3.046 0 0 0-.92 2.176c0 .815.331 1.599.92 2.175a3.17 3.17 0 0 0 2.219.902c.832 0 1.63-.325 2.219-.902.588-.576.919-1.36.919-2.175a3.05 3.05 0 0 0-.919-2.176 3.171 3.171 0 0 0-2.219-.901Zm18.703 0a3.17 3.17 0 0 0-2.219.901 3.05 3.05 0 0 0-.919 2.176c0 .815.331 1.599.919 2.175a3.17 3.17 0 0 0 2.219.902 3.17 3.17 0 0 0 2.219-.902c.588-.576.919-1.36.919-2.175a3.05 3.05 0 0 0-.919-2.176A3.17 3.17 0 0 0 96 52.349Zm18.703 0c-.832 0-1.63.324-2.219.901a3.05 3.05 0 0 0-.919 2.176c0 .815.331 1.599.919 2.175a3.172 3.172 0 0 0 2.219.902 3.17 3.17 0 0 0 2.219-.902c.589-.576.92-1.36.92-2.175 0-.816-.331-1.599-.92-2.176a3.17 3.17 0 0 0-2.219-.901Zm18.662 0a3.17 3.17 0 0 0-2.219.901 3.05 3.05 0 0 0-.919 2.176c0 .815.331 1.599.919 2.175a3.17 3.17 0 0 0 2.219.902 3.17 3.17 0 0 0 2.219-.902c.588-.576.919-1.36.919-2.175a3.05 3.05 0 0 0-.919-2.176 3.17 3.17 0 0 0-2.219-.901Zm18.703 0c-.832 0-1.63.324-2.219.901a3.05 3.05 0 0 0-.919 2.176c0 .815.331 1.599.919 2.175a3.172 3.172 0 0 0 2.219.902 3.17 3.17 0 0 0 2.219-.902c.589-.576.92-1.36.92-2.175 0-.816-.331-1.599-.92-2.176a3.17 3.17 0 0 0-2.219-.901Zm0 81.148c-.832 0-1.63.325-2.219.902a3.047 3.047 0 0 0-.919 2.175c0 .816.331 1.599.919 2.176a3.171 3.171 0 0 0 2.219.901 3.17 3.17 0 0 0 2.219-.901c.589-.577.92-1.36.92-2.176 0-.815-.331-1.599-.92-2.175a3.17 3.17 0 0 0-2.219-.902Zm-9.498 18.626c-.832 0-1.63.324-2.219.901a3.05 3.05 0 0 0-.919 2.176c0 .816.331 1.599.919 2.176a3.171 3.171 0 0 0 2.219.901 3.17 3.17 0 0 0 2.219-.901c.589-.577.919-1.36.919-2.176 0-.816-.33-1.599-.919-2.176a3.17 3.17 0 0 0-2.219-.901Zm-18.619 0a3.17 3.17 0 0 0-2.219.901 3.046 3.046 0 0 0-.92 2.176c0 .816.331 1.599.92 2.176a3.17 3.17 0 0 0 2.219.901c.832 0 1.63-.324 2.219-.901a3.05 3.05 0 0 0 .919-2.176 3.05 3.05 0 0 0-.919-2.176 3.171 3.171 0 0 0-2.219-.901Zm-18.62 0a3.17 3.17 0 0 0-2.219.901 3.045 3.045 0 0 0-.919 2.176c0 .816.33 1.599.919 2.176a3.17 3.17 0 0 0 2.219.901 3.17 3.17 0 0 0 2.219-.901 3.05 3.05 0 0 0 .919-2.176 3.05 3.05 0 0 0-.919-2.176 3.17 3.17 0 0 0-2.219-.901Zm9.372 17.723c-.832 0-1.63.325-2.219.901a3.05 3.05 0 0 0-.919 2.176c0 .816.331 1.599.919 2.176a3.171 3.171 0 0 0 2.219.901 3.17 3.17 0 0 0 2.219-.901c.589-.577.92-1.36.92-2.176 0-.816-.331-1.599-.92-2.176a3.174 3.174 0 0 0-2.219-.901Zm-18.703 0c-.832 0-1.631.325-2.219.901a3.05 3.05 0 0 0-.919 2.176c0 .816.331 1.599.919 2.176A3.17 3.17 0 0 0 96 176a3.17 3.17 0 0 0 2.219-.901 3.05 3.05 0 0 0 .919-2.176 3.05 3.05 0 0 0-.919-2.176 3.174 3.174 0 0 0-2.219-.901Zm-18.703 0c-.832 0-1.631.325-2.219.901a3.046 3.046 0 0 0-.92 2.176c0 .816.331 1.599.92 2.176a3.17 3.17 0 0 0 2.219.901c.832 0 1.63-.324 2.219-.901a3.05 3.05 0 0 0 .919-2.176 3.05 3.05 0 0 0-.919-2.176 3.176 3.176 0 0 0-2.219-.901Zm9.372-17.723c-.832 0-1.63.324-2.219.901a3.05 3.05 0 0 0-.919 2.176c0 .816.331 1.599.919 2.176a3.171 3.171 0 0 0 2.219.901 3.17 3.17 0 0 0 2.219-.901c.589-.577.919-1.36.919-2.176 0-.816-.33-1.599-.919-2.176a3.17 3.17 0 0 0-2.219-.901Zm-18.62 0c-.831 0-1.63.324-2.219.901a3.05 3.05 0 0 0-.919 2.176c0 .816.331 1.599.919 2.176a3.173 3.173 0 0 0 2.219.901 3.17 3.17 0 0 0 2.219-.901c.589-.577.92-1.36.92-2.176 0-.816-.331-1.599-.92-2.176a3.17 3.17 0 0 0-2.219-.901Zm-18.619 0a3.17 3.17 0 0 0-2.219.901 3.045 3.045 0 0 0-.919 2.176c0 .816.33 1.599.919 2.176a3.17 3.17 0 0 0 2.219.901c.832 0 1.63-.324 2.219-.901a3.05 3.05 0 0 0 .919-2.176 3.05 3.05 0 0 0-.919-2.176 3.171 3.171 0 0 0-2.219-.901Zm83.935-18.626a3.17 3.17 0 0 0-2.219.902 3.047 3.047 0 0 0-.919 2.175c0 .816.331 1.599.919 2.176a3.17 3.17 0 0 0 2.219.901 3.17 3.17 0 0 0 2.219-.901 3.05 3.05 0 0 0 .919-2.176c0-.815-.331-1.599-.919-2.175a3.17 3.17 0 0 0-2.219-.902Zm-18.662 0c-.832 0-1.63.325-2.219.902a3.047 3.047 0 0 0-.919 2.175c0 .816.331 1.599.919 2.176a3.171 3.171 0 0 0 2.219.901 3.17 3.17 0 0 0 2.219-.901c.589-.577.92-1.36.92-2.176 0-.815-.331-1.599-.92-2.175a3.17 3.17 0 0 0-2.219-.902Zm-18.703 0a3.17 3.17 0 0 0-2.219.902 3.047 3.047 0 0 0-.919 2.175c0 .816.331 1.599.919 2.176a3.17 3.17 0 0 0 2.219.901 3.17 3.17 0 0 0 2.219-.901 3.05 3.05 0 0 0 .919-2.176c0-.815-.331-1.599-.919-2.175a3.17 3.17 0 0 0-2.219-.902Zm-18.703 0a3.17 3.17 0 0 0-2.219.902 3.044 3.044 0 0 0-.92 2.175c0 .816.331 1.599.92 2.176a3.17 3.17 0 0 0 2.219.901c.832 0 1.63-.324 2.219-.901a3.05 3.05 0 0 0 .919-2.176c0-.815-.331-1.599-.919-2.175a3.172 3.172 0 0 0-2.219-.902Zm-18.662 0a3.17 3.17 0 0 0-2.219.902 3.047 3.047 0 0 0-.919 2.175c0 .816.331 1.599.919 2.176a3.17 3.17 0 0 0 2.219.901 3.17 3.17 0 0 0 2.219-.901 3.05 3.05 0 0 0 .919-2.176c0-.815-.331-1.599-.919-2.175a3.17 3.17 0 0 0-2.219-.902Zm-18.703 0a3.17 3.17 0 0 0-2.219.902 3.044 3.044 0 0 0-.92 2.175c0 .816.331 1.599.92 2.176a3.17 3.17 0 0 0 2.219.901c.832 0 1.63-.324 2.219-.901a3.05 3.05 0 0 0 .919-2.176c0-.815-.331-1.599-.919-2.175a3.172 3.172 0 0 0-2.219-.902Z"/><path d="M16.5 98.256c7.532-6.359 14.645-10.461 21.8-10.461 13.18 0 14.812 14.318 27.155 14.318 9.247 0 14.519-22.441 23.097-22.441 9.917 0 11.13 32.82 21.716 32.82 7.574 0 14.185-22.81 23.641-22.81 8.034 0 11.548 11.733 24.896 11.733A34.955 34.955 0 0 0 175.5 96" fill="none" stroke="#000" stroke-width="12" stroke-linecap="round" stroke-linejoin="round"/></svg>

<svg
    xmlns="http://www.w3.org/2000/svg"
    viewBox="0 0 192 192"
    id="vector">
    <path
        id="path"
        d="M 39.932 52.349 C 39.1 52.349 38.301 52.673 37.713 53.25 C 37.124 53.827 36.793 54.61 36.793 55.426 C 36.793 56.241 37.124 57.025 37.713 57.601 C 38.301 58.178 39.1 58.503 39.932 58.503 C 40.764 58.503 41.562 58.178 42.151 57.601 C 42.739 57.025 43.07 56.241 43.07 55.426 C 43.07 54.61 42.739 53.827 42.151 53.25 C 41.562 52.673 40.764 52.349 39.932 52.349 Z M 49.43 33.723 C 48.598 33.723 47.799 34.047 47.211 34.624 C 46.622 35.201 46.292 35.984 46.292 36.8 C 46.292 37.616 46.622 38.399 47.211 38.976 C 47.799 39.553 48.598 39.877 49.43 39.877 C 50.262 39.877 51.06 39.553 51.649 38.976 C 52.237 38.399 52.568 37.616 52.568 36.8 C 52.568 35.984 52.237 35.201 51.649 34.624 C 51.06 34.047 50.262 33.723 49.43 33.723 Z M 68.049 33.723 C 67.218 33.723 66.419 34.047 65.83 34.624 C 65.242 35.201 64.911 35.984 64.911 36.8 C 64.911 37.616 65.242 38.399 65.83 38.976 C 66.419 39.553 67.218 39.877 68.049 39.877 C 68.881 39.877 69.68 39.553 70.268 38.976 C 70.857 38.399 71.188 37.616 71.188 36.8 C 71.188 35.984 70.857 35.201 70.268 34.624 C 69.68 34.047 68.881 33.723 68.049 33.723 Z M 86.669 33.723 C 85.837 33.723 85.039 34.047 84.45 34.624 C 83.862 35.201 83.531 35.984 83.531 36.8 C 83.531 37.616 83.862 38.399 84.45 38.976 C 85.039 39.553 85.837 39.877 86.669 39.877 C 87.501 39.877 88.3 39.553 88.888 38.976 C 89.477 38.399 89.807 37.616 89.807 36.8 C 89.807 35.984 89.477 35.201 88.888 34.624 C 88.3 34.047 87.501 33.723 86.669 33.723 Z M 77.297 16 C 76.634 16 75.988 16.206 75.452 16.588 C 74.916 16.97 74.517 17.508 74.312 18.126 C 74.107 18.744 74.107 19.41 74.312 20.028 C 74.517 20.646 74.916 21.184 75.452 21.566 C 75.988 21.948 76.634 22.154 77.297 22.154 C 78.129 22.154 78.927 21.829 79.516 21.253 C 80.104 20.676 80.435 19.893 80.435 19.077 C 80.435 18.261 80.104 17.478 79.516 16.901 C 78.927 16.324 78.129 16 77.297 16 Z M 96 16 C 95.337 16 94.692 16.206 94.155 16.588 C 93.619 16.97 93.22 17.508 93.015 18.126 C 92.811 18.744 92.811 19.41 93.015 20.028 C 93.22 20.646 93.619 21.184 94.155 21.566 C 94.692 21.948 95.337 22.154 96 22.154 C 96.832 22.154 97.631 21.829 98.219 21.253 C 98.807 20.676 99.138 19.893 99.138 19.077 C 99.138 18.261 98.807 17.478 98.219 16.901 C 97.631 16.324 96.832 16 96 16 Z M 114.703 16 C 114.041 16 113.395 16.206 112.859 16.588 C 112.323 16.97 111.924 17.508 111.719 18.126 C 111.514 18.744 111.514 19.41 111.719 20.028 C 111.924 20.646 112.323 21.184 112.859 21.566 C 113.395 21.948 114.041 22.154 114.703 22.154 C 115.535 22.154 116.334 21.829 116.922 21.253 C 117.511 20.676 117.842 19.893 117.842 19.077 C 117.842 18.261 117.511 17.478 116.922 16.901 C 116.334 16.324 115.535 16 114.703 16 Z M 105.331 33.723 C 104.499 33.723 103.7 34.047 103.112 34.624 C 102.523 35.201 102.193 35.984 102.193 36.8 C 102.193 37.616 102.523 38.399 103.112 38.976 C 103.7 39.553 104.499 39.877 105.331 39.877 C 106.163 39.877 106.962 39.553 107.55 38.976 C 108.138 38.399 108.469 37.616 108.469 36.8 C 108.469 35.984 108.138 35.201 107.55 34.624 C 106.962 34.047 106.163 33.723 105.331 33.723 Z M 123.951 33.723 C 123.119 33.723 122.32 34.047 121.732 34.624 C 121.143 35.201 120.812 35.984 120.812 36.8 C 120.812 37.616 121.143 38.399 121.732 38.976 C 122.32 39.553 123.119 39.877 123.951 39.877 C 124.783 39.877 125.581 39.553 126.17 38.976 C 126.758 38.399 127.089 37.616 127.089 36.8 C 127.089 35.984 126.758 35.201 126.17 34.624 C 125.581 34.047 124.783 33.723 123.951 33.723 Z M 142.57 33.723 C 141.738 33.723 140.94 34.047 140.351 34.624 C 139.763 35.201 139.432 35.984 139.432 36.8 C 139.432 37.616 139.763 38.399 140.351 38.976 C 140.94 39.553 141.738 39.877 142.57 39.877 C 143.402 39.877 144.201 39.553 144.789 38.976 C 145.378 38.399 145.708 37.616 145.708 36.8 C 145.708 35.984 145.378 35.201 144.789 34.624 C 144.201 34.047 143.402 33.723 142.57 33.723 Z M 58.635 52.349 C 57.803 52.349 57.004 52.673 56.416 53.25 C 55.828 53.827 55.497 54.61 55.497 55.426 C 55.497 56.241 55.828 57.025 56.416 57.601 C 57.004 58.178 57.803 58.503 58.635 58.503 C 59.467 58.503 60.266 58.178 60.854 57.601 C 61.442 57.025 61.773 56.241 61.773 55.426 C 61.773 54.61 61.442 53.827 60.854 53.25 C 60.266 52.673 59.467 52.349 58.635 52.349 Z M 77.297 52.349 C 76.465 52.349 75.666 52.673 75.078 53.25 C 74.489 53.827 74.158 54.61 74.158 55.426 C 74.158 56.241 74.489 57.025 75.078 57.601 C 75.666 58.178 76.465 58.503 77.297 58.503 C 78.129 58.503 78.927 58.178 79.516 57.601 C 80.104 57.025 80.435 56.241 80.435 55.426 C 80.435 54.61 80.104 53.827 79.516 53.25 C 78.927 52.673 78.129 52.349 77.297 52.349 Z M 96 52.349 C 95.168 52.349 94.369 52.673 93.781 53.25 C 93.193 53.827 92.862 54.61 92.862 55.426 C 92.862 56.241 93.193 57.025 93.781 57.601 C 94.369 58.178 95.168 58.503 96 58.503 C 96.832 58.503 97.631 58.178 98.219 57.601 C 98.807 57.025 99.138 56.241 99.138 55.426 C 99.138 54.61 98.807 53.827 98.219 53.25 C 97.631 52.673 96.832 52.349 96 52.349 Z M 114.703 52.349 C 113.871 52.349 113.073 52.673 112.484 53.25 C 111.896 53.827 111.565 54.61 111.565 55.426 C 111.565 56.241 111.896 57.025 112.484 57.601 C 113.073 58.178 113.871 58.503 114.703 58.503 C 115.535 58.503 116.334 58.178 116.922 57.601 C 117.511 57.025 117.842 56.241 117.842 55.426 C 117.842 54.61 117.511 53.827 116.922 53.25 C 116.334 52.673 115.535 52.349 114.703 52.349 Z M 133.365 52.349 C 132.533 52.349 131.734 52.673 131.146 53.25 C 130.558 53.827 130.227 54.61 130.227 55.426 C 130.227 56.241 130.558 57.025 131.146 57.601 C 131.734 58.178 132.533 58.503 133.365 58.503 C 134.197 58.503 134.996 58.178 135.584 57.601 C 136.172 57.025 136.503 56.241 136.503 55.426 C 136.503 54.61 136.172 53.827 135.584 53.25 C 134.996 52.673 134.197 52.349 133.365 52.349 Z M 152.068 52.349 C 151.236 52.349 150.438 52.673 149.849 53.25 C 149.261 53.827 148.93 54.61 148.93 55.426 C 148.93 56.241 149.261 57.025 149.849 57.601 C 150.438 58.178 151.236 58.503 152.068 58.503 C 152.9 58.503 153.699 58.178 154.287 57.601 C 154.876 57.025 155.207 56.241 155.207 55.426 C 155.207 54.61 154.876 53.827 154.287 53.25 C 153.699 52.673 152.9 52.349 152.068 52.349 Z M 152.068 133.497 C 151.236 133.497 150.438 133.822 149.849 134.399 C 149.261 134.975 148.93 135.759 148.93 136.574 C 148.93 137.39 149.261 138.173 149.849 138.75 C 150.438 139.327 151.236 139.651 152.068 139.651 C 152.9 139.651 153.699 139.327 154.287 138.75 C 154.876 138.173 155.207 137.39 155.207 136.574 C 155.207 135.759 154.876 134.975 154.287 134.399 C 153.699 133.822 152.9 133.497 152.068 133.497 Z M 142.57 152.123 C 141.738 152.123 140.94 152.447 140.351 153.024 C 139.763 153.601 139.432 154.384 139.432 155.2 C 139.432 156.016 139.763 156.799 140.351 157.376 C 140.94 157.953 141.738 158.277 142.57 158.277 C 143.402 158.277 144.201 157.953 144.789 157.376 C 145.378 156.799 145.708 156.016 145.708 155.2 C 145.708 154.384 145.378 153.601 144.789 153.024 C 144.201 152.447 143.402 152.123 142.57 152.123 Z M 123.951 152.123 C 123.119 152.123 122.32 152.447 121.732 153.024 C 121.143 153.601 120.812 154.384 120.812 155.2 C 120.812 156.016 121.143 156.799 121.732 157.376 C 122.32 157.953 123.119 158.277 123.951 158.277 C 124.783 158.277 125.581 157.953 126.17 157.376 C 126.758 156.799 127.089 156.016 127.089 155.2 C 127.089 154.384 126.758 153.601 126.17 153.024 C 125.581 152.447 124.783 152.123 123.951 152.123 Z M 105.331 152.123 C 104.499 152.123 103.7 152.447 103.112 153.024 C 102.523 153.601 102.193 154.384 102.193 155.2 C 102.193 156.016 102.523 156.799 103.112 157.376 C 103.7 157.953 104.499 158.277 105.331 158.277 C 106.163 158.277 106.962 157.953 107.55 157.376 C 108.138 156.799 108.469 156.016 108.469 155.2 C 108.469 154.384 108.138 153.601 107.55 153.024 C 106.962 152.447 106.163 152.123 105.331 152.123 Z M 114.703 169.846 C 113.871 169.846 113.073 170.171 112.484 170.747 C 111.896 171.324 111.565 172.107 111.565 172.923 C 111.565 173.739 111.896 174.522 112.484 175.099 C 113.073 175.676 113.871 176 114.703 176 C 115.535 176 116.334 175.676 116.922 175.099 C 117.511 174.522 117.842 173.739 117.842 172.923 C 117.842 172.107 117.511 171.324 116.922 170.747 C 116.334 170.171 115.535 169.846 114.703 169.846 Z M 96 169.846 C 95.168 169.846 94.369 170.171 93.781 170.747 C 93.193 171.324 92.862 172.107 92.862 172.923 C 92.862 173.739 93.193 174.522 93.781 175.099 C 94.369 175.676 95.168 176 96 176 C 96.832 176 97.631 175.676 98.219 175.099 C 98.807 174.522 99.138 173.739 99.138 172.923 C 99.138 172.107 98.807 171.324 98.219 170.747 C 97.631 170.171 96.832 169.846 96 169.846 Z M 77.297 169.846 C 76.465 169.846 75.666 170.171 75.078 170.747 C 74.489 171.324 74.158 172.107 74.158 172.923 C 74.158 173.739 74.489 174.522 75.078 175.099 C 75.666 175.676 76.465 176 77.297 176 C 78.129 176 78.927 175.676 79.516 175.099 C 80.104 174.522 80.435 173.739 80.435 172.923 C 80.435 172.107 80.104 171.324 79.516 170.747 C 78.927 170.171 78.129 169.846 77.297 169.846 Z M 86.669 152.123 C 85.837 152.123 85.039 152.447 84.45 153.024 C 83.862 153.601 83.531 154.384 83.531 155.2 C 83.531 156.016 83.862 156.799 84.45 157.376 C 85.039 157.953 85.837 158.277 86.669 158.277 C 87.501 158.277 88.3 157.953 88.888 157.376 C 89.477 156.799 89.807 156.016 89.807 155.2 C 89.807 154.384 89.477 153.601 88.888 153.024 C 88.3 152.447 87.501 152.123 86.669 152.123 Z M 68.049 152.123 C 67.218 152.123 66.419 152.447 65.83 153.024 C 65.242 153.601 64.911 154.384 64.911 155.2 C 64.911 156.016 65.242 156.799 65.83 157.376 C 66.419 157.953 67.218 158.277 68.049 158.277 C 68.881 158.277 69.68 157.953 70.268 157.376 C 70.857 156.799 71.188 156.016 71.188 155.2 C 71.188 154.384 70.857 153.601 70.268 153.024 C 69.68 152.447 68.881 152.123 68.049 152.123 Z M 49.43 152.123 C 48.598 152.123 47.799 152.447 47.211 153.024 C 46.622 153.601 46.292 154.384 46.292 155.2 C 46.292 156.016 46.622 156.799 47.211 157.376 C 47.799 157.953 48.598 158.277 49.43 158.277 C 50.262 158.277 51.06 157.953 51.649 157.376 C 52.237 156.799 52.568 156.016 52.568 155.2 C 52.568 154.384 52.237 153.601 51.649 153.024 C 51.06 152.447 50.262 152.123 49.43 152.123 Z M 133.365 133.497 C 132.533 133.497 131.734 133.822 131.146 134.399 C 130.558 134.975 130.227 135.759 130.227 136.574 C 130.227 137.39 130.558 138.173 131.146 138.75 C 131.734 139.327 132.533 139.651 133.365 139.651 C 134.197 139.651 134.996 139.327 135.584 138.75 C 136.172 138.173 136.503 137.39 136.503 136.574 C 136.503 135.759 136.172 134.975 135.584 134.399 C 134.996 133.822 134.197 133.497 133.365 133.497 Z M 114.703 133.497 C 113.871 133.497 113.073 133.822 112.484 134.399 C 111.896 134.975 111.565 135.759 111.565 136.574 C 111.565 137.39 111.896 138.173 112.484 138.75 C 113.073 139.327 113.871 139.651 114.703 139.651 C 115.535 139.651 116.334 139.327 116.922 138.75 C 117.511 138.173 117.842 137.39 117.842 136.574 C 117.842 135.759 117.511 134.975 116.922 134.399 C 116.334 133.822 115.535 133.497 114.703 133.497 Z M 96 133.497 C 95.168 133.497 94.369 133.822 93.781 134.399 C 93.193 134.975 92.862 135.759 92.862 136.574 C 92.862 137.39 93.193 138.173 93.781 138.75 C 94.369 139.327 95.168 139.651 96 139.651 C 96.832 139.651 97.631 139.327 98.219 138.75 C 98.807 138.173 99.138 137.39 99.138 136.574 C 99.138 135.759 98.807 134.975 98.219 134.399 C 97.631 133.822 96.832 133.497 96 133.497 Z M 77.297 133.497 C 76.465 133.497 75.666 133.822 75.078 134.399 C 74.489 134.975 74.158 135.759 74.158 136.574 C 74.158 137.39 74.489 138.173 75.078 138.75 C 75.666 139.327 76.465 139.651 77.297 139.651 C 78.129 139.651 78.927 139.327 79.516 138.75 C 80.104 138.173 80.435 137.39 80.435 136.574 C 80.435 135.759 80.104 134.975 79.516 134.399 C 78.927 133.822 78.129 133.497 77.297 133.497 Z M 58.635 133.497 C 57.803 133.497 57.004 133.822 56.416 134.399 C 55.828 134.975 55.497 135.759 55.497 136.574 C 55.497 137.39 55.828 138.173 56.416 138.75 C 57.004 139.327 57.803 139.651 58.635 139.651 C 59.467 139.651 60.266 139.327 60.854 138.75 C 61.442 138.173 61.773 137.39 61.773 136.574 C 61.773 135.759 61.442 134.975 60.854 134.399 C 60.266 133.822 59.467 133.497 58.635 133.497 Z M 39.932 133.497 C 39.1 133.497 38.301 133.822 37.713 134.399 C 37.124 134.975 36.793 135.759 36.793 136.574 C 36.793 137.39 37.124 138.173 37.713 138.75 C 38.301 139.327 39.1 139.651 39.932 139.651 C 40.764 139.651 41.562 139.327 42.151 138.75 C 42.739 138.173 43.07 137.39 43.07 136.574 C 43.07 135.759 42.739 134.975 42.151 134.399 C 41.562 133.822 40.764 133.497 39.932 133.497 Z"
        fill="#000000"
        stroke-width="12"/>
    <path
        id="path_1"
        d="M 16.5 98.256 C 24.032 91.897 31.145 87.795 38.3 87.795 C 51.48 87.795 53.112 102.113 65.455 102.113 C 74.702 102.113 79.974 79.672 88.552 79.672 C 98.469 79.672 99.682 112.492 110.268 112.492 C 117.842 112.492 124.453 89.682 133.909 89.682 C 141.943 89.682 145.457 101.415 158.805 101.415 C 164.753 101.055 170.506 99.189 175.5 96"
        fill="none"
        stroke="#000000"
        stroke-width="12"
        stroke-linecap="round"
        stroke-linejoin="round"/>
</svg>
